assets/img/icons/close.svg

<svg width="14" height="14" viewBox="0 0 14 14" fill="none" xmlns="http://www.w3.org/2000/svg">
<path d="M7.00047 8.05381L1.92737 13.1269C1.78892 13.2654 1.61489 13.3362 1.40527 13.3394C1.19567 13.3426 1.01844 13.2718 0.873575 13.1269C0.728692 12.982 0.65625 12.8064 0.65625 12.6C0.65625 12.3936 0.728692 12.218 0.873575 12.0731L5.94665 6.99999L0.873575 1.92689C0.735108 1.78844 0.664275 1.6144 0.661075 1.40479C0.657858 1.19519 0.728692 1.01795 0.873575 0.873087C1.01844 0.728203 1.19407 0.655762 1.40047 0.655762C1.60687 0.655762 1.78251 0.728203 1.92737 0.873087L7.00047 5.94616L12.0736 0.873087C12.212 0.73462 12.3861 0.663787 12.5957 0.660587C12.8053 0.65737 12.9825 0.728203 13.1274 0.873087C13.2723 1.01795 13.3447 1.19359 13.3447 1.39999C13.3447 1.60639 13.2723 1.78202 13.1274 1.92689L8.0543 6.99999L13.1274 12.0731C13.2658 12.2115 13.3367 12.3856 13.3399 12.5952C13.3431 12.8048 13.2723 12.982 13.1274 13.1269C12.9825 13.2718 12.8069 13.3442 12.6005 13.3442C12.3941 13.3442 12.2184 13.2718 12.0736 13.1269L7.00047 8.05381Z" fill="#44423D"/>
</svg>

<svg width="14" height="14" fill="none" xmlns="http://www.w3.org/2000/svg"><path d="M7 8.054l-5.073 5.073a.724.724 0 01-.522.212.707.707 0 01-.531-.212.718.718 0 01-.218-.527c0-.206.073-.382.218-.527L5.947 7 .874 1.927a.725.725 0 01-.213-.522.707.707 0 01.213-.532A.717.717 0 011.4.656c.207 0 .383.072.527.217L7 5.946 12.074.873a.724.724 0 01.522-.212.707.707 0 01.531.212c.145.145.218.32.218.527a.717.717 0 01-.218.527L8.054 7l5.073 5.073c.139.138.21.313.213.522a.707.707 0 01-.213.532.717.717 0 01-.527.217.717.717 0 01-.526-.217L7 8.054z" fill="#44423D"/></svg>
